svgs/sharp-solid/jar-wheat.svg

<svg xmlns="http://www.w3.org/2000/svg" viewBox="0 0 320 512"><!--! Font Awesome Pro 6.6.0 by @fontawesome - https://fontawesome.com License - https://fontawesome.com/license (Commercial License) Copyright 2024 Fonticons, Inc. --><path d="M32 0L288 0l0 64L32 64 32 0zM0 96l320 0 0 416L0 512 0 96zM192 320c35.3 0 64-28.7 64-64l-48 0c-19.1 0-36.3 8.4-48 21.7c-11.7-13.3-28.9-21.7-48-21.7l-48 0c0 35.3 28.7 64 64 64l16 0 32 0 16 0zm0-96c35.3 0 64-28.7 64-64l-48 0c-19.1 0-36.3 8.4-48 21.7c-11.7-13.3-28.9-21.7-48-21.7l-48 0c0 35.3 28.7 64 64 64l16 0 32 0 16 0zm0 192c35.3 0 64-28.7 64-64l-48 0c-19.1 0-36.3 8.4-48 21.7c-11.7-13.3-28.9-21.7-48-21.7l-48 0c0 35.3 28.7 64 64 64l16 0 0 32 0 16 32 0 0-16 0-32 16 0z"/></svg>

<svg xmlns="http://www.w3.org/2000/svg" viewBox="0 0 320 512"><!--! Font Awesome Pro 6.4.0 by @fontawesome - https://fontawesome.com License - https://fontawesome.com/license (Commercial License) Copyright 2023 Fonticons, Inc. --><path d="M32 0H288V64H32V0zM0 96H320V512H0V96zM192 320c35.3 0 64-28.7 64-64H208c-19.1 0-36.3 8.4-48 21.7c-11.7-13.3-28.9-21.7-48-21.7H64c0 35.3 28.7 64 64 64h16 32 16zm0-96c35.3 0 64-28.7 64-64H208c-19.1 0-36.3 8.4-48 21.7c-11.7-13.3-28.9-21.7-48-21.7H64c0 35.3 28.7 64 64 64h16 32 16zm0 192c35.3 0 64-28.7 64-64H208c-19.1 0-36.3 8.4-48 21.7c-11.7-13.3-28.9-21.7-48-21.7H64c0 35.3 28.7 64 64 64h16v32 16h32V448 416h16z"/></svg>
